X:1
T:Ave Maria
T:Ave Maria
T:François de Layolle
T:(1492-ca 1540)
T:Source : Trium vocum cantiones---Nürnberg---J.Petreius---1541. Editor : André Vierendeels (13/04/16).
T:Notes : Original clefs : C1, C1, C3 Editorial accidentals above the staff Original note values have been halved m 30 in S1 : "A" notated as "B" in original print 
T:©
T:©
T:©
T:©
T:©
C:François de Layolle
Z:©
%%score [ 1 2 3 ]
L:1/8
Q:1/4=94
M:2/2
K:C
V:1 treble nm="Soprano 1" snm="S 1"
V:2 treble nm="Soprano 2" snm="S 2"
V:3 treble-8 nm="Tenor" snm="T"
V:1
 D4 D2 D2 | F3 G A4 | z2 c2 c2 A2 | A2 GF G4 | A4 z2 d2 | d3 c B2 A2- | AG G4 F2 | G2 d2 d2 d2 | %8
w: A- ve Ma-|ri- * a,|a- ve Ma-|ri- * * *|a, a-|ve _ _ Ma-|* * ri- *|a, gra- ti- a|
 e4 c4 | z2 d2- dcBA | G2 c4 B2 | c4 e4 | d4 c2 B2- | B2 AG A4 | G4 z2 G2 | A2 B2 c2 B2- | %16
w: ple- na,|ple- * * * *||na, gra-|ti- a ple-||na, Do-|mi- nus te- *|
 BA A4 G2 | A3 G E2 F2 | G2 F4 ED | C2 c3 ABc | BA d4 c2 | d3 c BA c2- | cB A4 G2 | A3 B cd e2- | %24
w: ||* cum, _ _|_ te- * * *||||cum, _ _ _ _|
 e2 dc BA B2 | ABcd e2 f2- | fedc d4 | c8 | A8 | !fermata!A8 | c4 d2 e2- | ed d4 c2 | d2 d2 D3 E | %33
w: _ _ _ _ _ te-|||||cum,|be- ne- di-|* * * cta|tu in mu- *|
 FG A4 G2 | AE A3 G E2 | F2 G3 F D2 | G2 A3 G F2 | E2 G4 F2 | E2 e2 e2 e2 | f4 e2 d2- | dcBA B4 | %41
w: * * * li-|e- * * * *|||* * ri-|bus, et be- ne-|di- ctus fru-||
 A2 D2 E2 C2 | D2 E2 F4 | E4 z4 | z2 D2 E2 C2 | D2 E2 F4 | E4 F4 | !fermata!E8 | F6 E2 | %49
w: tus, et be- ne-|di- ctus fru-|ctus,|et be- ne-|di- ctus fru-|ctus ven-|tris,|Ie- sus|
 A3 G/F/ A2 B2 | A8 |] %51
w: Chri- * * * *|stus.|
V:2
 z4 D4 | D2 D2 F3 G | A4 z2 c2 |"^b" c2 c2 B4 | A8 | z4 z2 A2 | B2 c2 d4 | B8 | z8 | z8 | %10
w: A-|ve Ma- ri- *|a, a-|ve Ma- ri-|a,|a-|ve Ma- ri-|a,|||
 d4 d2 d2 | e4 c4 | z8 | D4 D2 D2 | E4 C4 | z8 | D4 D2 D2 | E4 C4 | z4 D4 | E4 F4 | G3 F E4 | %21
w: gra- ti- a|ple- na,||gra- ti- a|ple- na,||Do- mi- nus|te- cum,|Do-|mi- nus|te- * *|
 D4 z4 | A4 B2 B2 | c6 BA | G2 A4 G2 | A8 | A4 G4 | A8 | F8 | !fermata!E8 | A4 G4- | G2 F2 G4 | %32
w: cum,|Do- mi- nus|te- * *||cum,|Do- mi-|nus|te-|cum,|be- ne|_ di- cta|
 A4 d4 | d4 d4 | c4 c4 | A2 c2 B2 d2 | c4 d4 | e4 A4 | c2 c2 c2 c2 | d4 c2 B2- | B2 A4 G2 | %41
w: tu in|mu- li-|e- ri-|bus, in mu- li-|e- ri-|bus, et|be- ne- di- ctus|fru- ctus ven-|* tris tu-|
 A4 z2 A2 | B2 G2 A2 B2 | c4 B2 A2- | A2 G2 A2 c2- | c2 B2 A4- | A8 | !fermata!c8 | A6 G2 | %49
w: i, et|be- ne di- ctus|fru- ctus ven-|* * tris, ven-|* tris tu-||i,|Ie- sus|
 F3 E/D/ F2 G2 | F8 |] %51
w: Chri- * * * *|stus.|
V:3
 z8 | d4 d2 d2 | f3 g a4 | z2 e2 e2 e2 | f4 d4 | z2 d3 e f2 | e2 e2 d4 | G4 z2 g2 |"^b" g2 g2 a4 | %9
w: |A- ve Ma-|ri- * a,|a- ve Ma-|ri- a,|a- * *|ve Ma- ri-|a, gra-|ti- a ple-|
 f4 z2 g2- | g2 fe d2 d2 | c2 A4 a2 | f2 g2 a2 g2- | g2 fe f4 | g3 f ed e2 | d4 c2 d2- | d2 c2 B4 | %17
w: na, gra-|* * * ti- a|ple- na, gra-|ti- a ple- *||na, _ _ _ _|Do- mi- nus|_ te- cum,|
 A6 A2 | _B2 A2 B4 | A4 z4 | z4 z2 g2- | g2 f2 g2 a2 | A2 c2 B4 | A8 | c3 d e2 e2 | f3 e c2 d2- | %26
w: Do- mi-|nus te- *|cum,|Do-|* mi- nus te-||cum,|Do- mi- nus te-||
 dcBA B4 | A8 | d8 | !fermata!A8 | A4 B2 c2- | c2 d2 e4 | d2 f3 e d2- | dcBA B2 B2 | A2 f3 e c2 | %35
w: |cum,|te-|cum,|be- ne- di-|* * cta|tu in mu- li-|* * * * e- ri-|bus, in mu- li-|
 d2 e3 d B2 | e2 f3 e d2- | d2 c2 d2 d2 | A8 | z4 z2 d2 | e2 c2 d2 e2 | f4 e4 | z4 z2 G2 | %43
w: e- * * *||* * * ri-|bus,|et|be- ne- di- ctus|fru- ctus,|et|
 A3 F G2 A2 | B4 A4 | G3 F D2 d2- | d2 c2 d4 | !fermata!A8 | d4 d4 | d8 | d8 |] %51
w: be- ne di- ctus|fru- ctus|ven- * tris tu-||i,|Ie- sus|Chri-|stus.|

